X:4075
T:Maudabawn Chapel
O:england
M:2/2
L:1/8
C:Ed Reavy
R:Reel
N:The local chapel in Ed's parish
N:where he first
N:learned the simple ways of faith.
K:D
EF|(3GFE (3GED ECDB,|G,A,B,D ECEB,|G,A,B,D GABd|gabg eaaf|
gabg efge|dfed Bc d2|(3efg fa gbec|dBA=c BEEF|
(3GFE (3FED ECDB,|G,A,B,D ECDB,|G,A,B,D GABd|
gabg eaaf|gfga (3bag (3agf|gfed efge|dfe=c BcdB|
A=cBA GEED||:E2 BE eEBE|GABG AFDF|EDEF GFGB|A2 (3FED A,DFD|
E2 BE eEBE|BAFA B^cde|f2 (3agf gfec|1dBA=c BEED:|2dBA=c BEED||
